contributed-vectors/mercado_pago.svg

<svg xmlns="http://www.w3.org/2000/svg" xml:space="preserve" style="fill-rule:evenodd;clip-rule:evenodd;stroke-linecap:round;stroke-linejoin:round;stroke-miterlimit:1.5" viewBox="0 0 192 192"><ellipse cx="94.951" cy="97.507" rx="59.577" ry="39.731" style="fill:#728dbe"/><path d="M61.539 62.608h1.576l.892 2.4-3.286 1.498c-.548.211-.999-.032-1.382-.59l-3.604-4.147a.918.918 0 0 1 .136-1.331l6.896-5.265a1.828 1.828 0 0 1 2.438.198L78.43 69.373c5.143 9.256 16.37 33.253 16.521 41.052.117 6.095-22.333 7.689-36.123 6.213l-.156-.017-.057-.006-.056-.007-.064-.007-.038-.004-.043-.005-.053-.006-.042-.005-.043-.004-.062-.008-.07-.008-.044-.005-.084-.01-.078-.009a74.875 74.875 0 0 1-.813-.103l-.079-.011-.19-.025-.075-.011c-2.927-.408-5.32-.972-6.805-1.676-5.234-2.483-5.678 1.117-5.288 4.123-5.896-6.164-9.314-13.482-9.314-21.327 0-.56.017-1.116.052-1.669l.563-.068c6.653-.781 13.136-.251 18.893.839h0l.018.003.269.052.155.03.15.029.259.052.021.004.027.006.258.052.168.035.09.019.033.007.02.004.241.051.025.005.038.008.077.017.139.03.03.006.022.005.155.034.061.014.045.009.035.008.217.049.03.006.057.013.072.016.087.02.064.015.048.011.142.033.033.007.056.013.055.013.026.006.118.028.078.018.09.022.052.012.045.011.089.021.202.049.073.018.095.023.028.007.15.037.16.04c10.169 2.543 17.174 6.404 17.174 6.404-.493-.494-2.578-4.827-1.755-11.629 1.292-10.681-4.258-20.968-4.258-20.968l-2.975.349a1.643 1.643 0 0 1-.639-.052L53.93 67.999a1.242 1.242 0 0 1-.858-1.518v-.001a2.068 2.068 0 0 1 2.479-1.472l3.788.908.31.358a.916.916 0 0 0 1.072.232l3.286-1.498 3.634 4.365-3.37-4.048a2.401 2.401 0 0 1-.408-.705l-.748-2.012 1.029-.834-.398.322a2.292 2.292 0 0 1-1.443.512h-.764Zm0 0-.618-.834.157.211c.258.35.2.841-.134 1.12l-.593.498 1.188-.995ZM154.469 95.714c.039.594.059 1.192.059 1.793 0 7.319-2.974 14.179-8.162 20.073.074-2.626-.876-5.011-5.392-2.869-.774.367-1.795.696-3.011.985h0l-.038.009-.065.015-.036.009-.051.011-.071.017-.02.004-.141.032-.146.032-.017.004-.05.01-.079.017-.036.008-.043.009-.069.014-.032.007-.023.005-.035.007-.059.012-.048.01-.027.005-.026.005-.05.01-.066.013-.029.006-.017.003-.04.008-.093.018-.031.006c-12.672 2.421-40.656 1.226-40.525-5.577.15-7.799 11.378-31.796 16.52-41.052l13.225-14.002a1.829 1.829 0 0 1 2.439-.198l6.896 5.265a.915.915 0 0 1 .136 1.331l-3.604 4.147c-.633.985-1.383.59-1.383.59l-3.285-1.498.891-2.4h1.576-.763a2.295 2.295 0 0 1-1.444-.512l.631.512-.747 2.012a2.401 2.401 0 0 1-.408.705l-3.37 4.048 3.634-4.365 3.285 1.498a.916.916 0 0 0 1.072-.232l.311-.358 3.787-.908a2.067 2.067 0 0 1 2.48 1.473 1.243 1.243 0 0 1-.859 1.518l-12.902 3.682a1.636 1.636 0 0 1-.638.052l-2.976-.349s-5.55 10.287-4.258 20.968c.823 6.802-1.261 11.135-1.755 11.629 0 0 6.665-3.673 16.426-6.213l.163-.043.148-.038.134-.034.284-.072.089-.021.035-.009.059-.015.103-.025.099-.025.076-.018.036-.009.076-.019.05-.012.188-.045.051-.012.067-.016.04-.01.111-.026.073-.017.072-.017.086-.02.066-.015.068-.016.033-.007.212-.049.048-.011.049-.011.221-.049.025-.006.055-.012.088-.02.104-.023.05-.011.018-.003.238-.052.042-.009.034-.007.241-.051.025-.006.039-.008.086-.018.176-.036.178-.037.093-.019.032-.006.018-.004.265-.053.021-.004.025-.005.277-.054.164-.031.146-.028.005-.001.29-.054.102-.019.091-.017c5.486-.999 11.605-1.476 17.887-.799m-25.058-33.106h.001l1.188.995-.594-.498a.823.823 0 0 1-.133-1.12l.156-.211-.617.834h-.001Z" style="fill:#fff;stroke:#728dbe;stroke-width:.96px"/><path d="M172.5 29.5c0-5.519-4.481-10-10-10h-133c-5.519 0-10 4.481-10 10v133c0 5.519 4.481 10 10 10h133c5.519 0 10-4.481 10-10v-133ZM94.951 57.776c32.882 0 59.577 17.802 59.577 39.731 0 21.928-26.695 39.73-59.577 39.73-32.881 0-59.577-17.802-59.577-39.73 0-21.929 26.696-39.731 59.577-39.731Z" style="fill:#9abeff"/><path d="m100.424 95.205 2.821-6.743c3.266-7.474 6.913-14.837 9.275-19.089l13.225-14.002a1.829 1.829 0 0 1 2.439-.198l6.896 5.265a.915.915 0 0 1 .136 1.331l-3.915 4.505a.883.883 0 0 1-.117.112.96.96 0 0 1-.861.157.915.915 0 0 1-.094-.037l-3.285-1.498c.014.006 3.337 1.522 3.379 1.535a.917.917 0 0 0 .861-.157c.142-.102.288-.252.428-.47l3.787-.908a2.067 2.067 0 0 1 2.48 1.473 1.243 1.243 0 0 1-.859 1.518l-12.902 3.682a1.636 1.636 0 0 1-.638.052l-2.976-.349s-4.27 7.996-4.443 17.153m11.774-25.929-.747 2.012a2.401 2.401 0 0 1-.408.705l-3.37 4.048 3.634-4.365.891-2.4h1.576-.763a2.295 2.295 0 0 1-1.444-.512l.631.512Zm1.576 0h.001l1.188.995-.594-.498a.823.823 0 0 1-.133-1.12l.156-.211-.617.834h-.001Z" style="fill:#fff;stroke:#728dbe;stroke-width:.96px;stroke-linecap:square"/><path d="m100.424 95.205 2.821-6.743c3.266-7.474 6.913-14.837 9.275-19.089l13.225-14.002a1.829 1.829 0 0 1 2.439-.198l6.896 5.265a.915.915 0 0 1 .136 1.331l-3.915 4.505a.883.883 0 0 1-.117.112.96.96 0 0 1-.861.157.915.915 0 0 1-.094-.037l-3.285-1.498c.014.006 3.337 1.522 3.379 1.535a.917.917 0 0 0 .861-.157c.142-.102.288-.252.428-.47l3.787-.908a2.067 2.067 0 0 1 2.48 1.473 1.243 1.243 0 0 1-.859 1.518l-12.902 3.682a1.636 1.636 0 0 1-.638.052l-2.976-.349s-4.27 7.996-4.443 17.153m11.774-25.929-.747 2.012a2.401 2.401 0 0 1-.408.705l-3.37 4.048 3.634-4.365.891-2.4h1.576-.763a2.295 2.295 0 0 1-1.444-.512l.631.512Zm1.576 0h.001l1.188.995-.594-.498a.823.823 0 0 1-.133-1.12l.156-.211-.617.834h-.001Z" style="fill:#fff;stroke:#728dbe;stroke-width:.96px;stroke-linecap:square" transform="matrix(-1 0 0 1 190.951 0)"/></svg>

<?xml version="1.0" encoding="UTF-8" standalone="no"?>
<!DOCTYPE svg PUBLIC "-//W3C//DTD SVG 1.1//EN" "http://www.w3.org/Graphics/SVG/1.1/DTD/svg11.dtd">
<svg width="100%" height="100%" viewBox="0 0 192 192" version="1.1" xmlns="http://www.w3.org/2000/svg" xmlns:xlink="http://www.w3.org/1999/xlink" xml:space="preserve" xmlns:serif="http://www.serif.com/" style="fill-rule:evenodd;clip-rule:evenodd;stroke-linecap:round;stroke-linejoin:round;stroke-miterlimit:1.5;">
    <g id="Layer2">
        <ellipse cx="94.951" cy="97.507" rx="59.577" ry="39.731" style="fill:rgb(114,141,190);"/>
        <g>
            <path d="M61.539,62.608L63.115,62.608L64.007,65.008L60.721,66.506C60.173,66.717 59.722,66.474 59.339,65.916L55.735,61.769C55.568,61.578 55.489,61.326 55.514,61.074C55.54,60.822 55.669,60.591 55.871,60.438C57.412,59.261 60.869,56.622 62.767,55.173C63.511,54.605 64.563,54.691 65.205,55.371C68.593,58.958 78.43,69.373 78.43,69.373C83.573,78.629 94.8,102.626 94.951,110.425C95.068,116.52 72.618,118.114 58.828,116.638L58.672,116.621L58.615,116.615L58.559,116.608L58.495,116.601L58.457,116.597L58.414,116.592L58.361,116.586L58.319,116.581L58.276,116.577L58.214,116.569L58.144,116.561L58.1,116.556L58.016,116.546L57.938,116.537C57.663,116.504 57.392,116.469 57.125,116.434L57.046,116.423L56.856,116.398L56.781,116.387C53.854,115.979 51.461,115.415 49.976,114.711C44.742,112.228 44.298,115.828 44.688,118.834C38.792,112.67 35.374,105.352 35.374,97.507C35.374,96.947 35.391,96.391 35.426,95.838C35.611,95.815 35.8,95.792 35.989,95.77C42.642,94.989 49.125,95.519 54.882,96.609L54.882,96.609L54.9,96.612C54.99,96.629 55.079,96.646 55.169,96.664L55.324,96.694L55.474,96.723C55.561,96.741 55.647,96.758 55.733,96.775L55.754,96.779L55.781,96.785C55.867,96.802 55.953,96.82 56.039,96.837L56.207,96.872L56.297,96.891L56.33,96.898L56.35,96.902C56.431,96.919 56.511,96.936 56.591,96.953L56.616,96.958L56.654,96.966L56.731,96.983L56.87,97.013L56.9,97.019L56.922,97.024L57.077,97.058L57.138,97.072L57.183,97.081L57.218,97.089C57.291,97.105 57.363,97.122 57.435,97.138L57.465,97.144L57.522,97.157L57.594,97.173L57.681,97.193L57.745,97.208L57.793,97.219L57.935,97.252L57.968,97.259L58.024,97.272L58.079,97.285L58.105,97.291L58.223,97.319L58.301,97.337L58.391,97.359L58.443,97.371L58.488,97.382L58.577,97.403L58.779,97.452L58.852,97.47L58.947,97.493L58.975,97.5L59.125,97.537L59.285,97.577C69.454,100.12 76.459,103.981 76.459,103.981C75.966,103.487 73.881,99.154 74.704,92.352C75.996,81.671 70.446,71.384 70.446,71.384C70.446,71.384 68.302,71.635 67.471,71.733C67.257,71.758 67.04,71.74 66.832,71.681C65.133,71.196 57.001,68.875 53.93,67.999C53.278,67.813 52.895,67.137 53.072,66.481C53.072,66.481 53.072,66.481 53.072,66.48C53.364,65.399 54.463,64.747 55.551,65.008L59.339,65.916L59.649,66.274C59.916,66.58 60.352,66.675 60.721,66.506C61.824,66.003 64.007,65.008 64.007,65.008L67.641,69.373L64.271,65.325C64.096,65.115 63.958,64.877 63.863,64.62C63.611,63.942 63.115,62.608 63.115,62.608L64.144,61.774C64.144,61.774 63.959,61.923 63.746,62.096C63.338,62.427 62.828,62.608 62.303,62.608L61.539,62.608ZM61.539,62.608L60.921,61.774C60.921,61.774 60.988,61.864 61.078,61.985C61.336,62.335 61.278,62.826 60.944,63.105C60.648,63.354 60.351,63.603 60.351,63.603L61.539,62.608Z" style="fill:white;stroke:rgb(114,141,190);stroke-width:0.96px;"/>
            <path d="M154.469,95.714C154.508,96.308 154.528,96.906 154.528,97.507C154.528,104.826 151.554,111.686 146.366,117.58C146.44,114.954 145.49,112.569 140.974,114.711C140.2,115.078 139.179,115.407 137.963,115.696L137.963,115.696L137.925,115.705L137.86,115.72L137.824,115.729L137.773,115.74L137.702,115.757L137.682,115.761L137.541,115.793L137.395,115.825L137.378,115.829L137.328,115.839L137.249,115.856L137.213,115.864L137.17,115.873L137.101,115.887L137.069,115.894L137.046,115.899L137.011,115.906L136.952,115.918L136.904,115.928L136.877,115.933L136.851,115.938L136.801,115.948L136.735,115.961L136.706,115.967L136.689,115.97L136.649,115.978L136.556,115.996L136.525,116.002C123.853,118.423 95.869,117.228 96,110.425C96.15,102.626 107.378,78.629 112.52,69.373C112.52,69.373 122.358,58.958 125.745,55.371C126.388,54.691 127.44,54.605 128.184,55.173C130.081,56.622 133.539,59.261 135.08,60.438C135.282,60.591 135.41,60.822 135.436,61.074C135.462,61.326 135.382,61.578 135.216,61.769L131.612,65.916C130.979,66.901 130.229,66.506 130.229,66.506L126.944,65.008L127.835,62.608L129.411,62.608L128.648,62.608C128.122,62.608 127.613,62.427 127.204,62.096L127.835,62.608C127.835,62.608 127.34,63.942 127.088,64.62C126.993,64.877 126.855,65.115 126.68,65.325C125.843,66.33 123.31,69.373 123.31,69.373L126.944,65.008C126.944,65.008 129.126,66.003 130.229,66.506C130.599,66.675 131.035,66.58 131.301,66.274L131.612,65.916L135.399,65.008C136.488,64.747 137.587,65.399 137.878,66.48C137.878,66.481 137.879,66.481 137.879,66.481C138.055,67.137 137.673,67.813 137.02,67.999C133.95,68.875 125.817,71.196 124.118,71.681C123.911,71.74 123.694,71.758 123.48,71.733C122.648,71.635 120.504,71.384 120.504,71.384C120.504,71.384 114.954,81.671 116.246,92.352C117.069,99.154 114.985,103.487 114.491,103.981C114.491,103.981 121.156,100.308 130.917,97.768L131.08,97.725L131.228,97.687L131.362,97.653L131.646,97.581L131.735,97.56L131.77,97.551L131.829,97.536L131.932,97.511L132.031,97.486L132.107,97.468L132.143,97.459L132.219,97.44L132.269,97.428C132.332,97.413 132.395,97.398 132.457,97.383L132.508,97.371L132.575,97.355L132.615,97.345L132.726,97.319L132.799,97.302L132.871,97.285L132.957,97.265L133.023,97.25L133.091,97.234L133.124,97.227C133.194,97.21 133.265,97.194 133.336,97.178L133.384,97.167L133.433,97.156C133.506,97.14 133.579,97.123 133.654,97.107L133.679,97.101L133.734,97.089L133.822,97.069L133.926,97.046L133.976,97.035L133.994,97.032C134.073,97.014 134.152,96.997 134.232,96.98L134.274,96.971L134.308,96.964C134.388,96.947 134.469,96.93 134.549,96.913L134.574,96.907L134.613,96.899L134.699,96.881L134.875,96.845L135.053,96.808L135.146,96.789L135.178,96.783L135.196,96.779C135.285,96.761 135.373,96.744 135.461,96.726L135.482,96.722L135.507,96.717C135.599,96.699 135.692,96.681 135.784,96.663L135.948,96.632L136.094,96.604L136.099,96.603C136.195,96.585 136.292,96.567 136.389,96.549L136.491,96.53L136.582,96.513C142.068,95.514 148.187,95.037 154.469,95.714M129.411,62.608L129.412,62.608L130.6,63.603C130.6,63.603 130.303,63.354 130.006,63.105C129.673,62.826 129.614,62.335 129.873,61.985C129.963,61.864 130.029,61.774 130.029,61.774L129.412,62.608L129.411,62.608Z" style="fill:white;stroke:rgb(114,141,190);stroke-width:0.96px;"/>
        </g>
        <path d="M172.5,29.5C172.5,23.981 168.019,19.5 162.5,19.5L29.5,19.5C23.981,19.5 19.5,23.981 19.5,29.5L19.5,162.5C19.5,168.019 23.981,172.5 29.5,172.5L162.5,172.5C168.019,172.5 172.5,168.019 172.5,162.5L172.5,29.5ZM94.951,57.776C127.833,57.776 154.528,75.578 154.528,97.507C154.528,119.435 127.833,137.237 94.951,137.237C62.07,137.237 35.374,119.435 35.374,97.507C35.374,75.578 62.07,57.776 94.951,57.776Z" style="fill:rgb(154,190,255);"/>
        <path d="M100.424,95.205L103.245,88.462C106.511,80.988 110.158,73.625 112.52,69.373C112.52,69.373 122.358,58.958 125.745,55.371C126.388,54.691 127.44,54.605 128.184,55.173C130.081,56.622 133.539,59.261 135.08,60.438C135.282,60.591 135.41,60.822 135.436,61.074C135.462,61.326 135.382,61.578 135.216,61.769L131.301,66.274C131.265,66.315 131.226,66.353 131.184,66.386C130.821,66.647 130.482,66.592 130.323,66.543C130.292,66.533 130.26,66.52 130.229,66.506L126.944,65.008C126.958,65.014 130.281,66.53 130.323,66.543C130.619,66.64 130.944,66.58 131.184,66.386C131.326,66.284 131.472,66.134 131.612,65.916L135.399,65.008C136.488,64.747 137.587,65.399 137.878,66.48C137.878,66.481 137.879,66.481 137.879,66.481C138.055,67.137 137.673,67.813 137.02,67.999C133.95,68.875 125.817,71.196 124.118,71.681C123.911,71.74 123.694,71.758 123.48,71.733C122.648,71.635 120.504,71.384 120.504,71.384C120.504,71.384 116.234,79.38 116.061,88.537M127.835,62.608C127.835,62.608 127.34,63.942 127.088,64.62C126.993,64.877 126.855,65.115 126.68,65.325C125.843,66.33 123.31,69.373 123.31,69.373L126.944,65.008L127.835,62.608L129.411,62.608L128.648,62.608C128.122,62.608 127.613,62.427 127.204,62.096L127.835,62.608ZM129.411,62.608L129.412,62.608L130.6,63.603C130.6,63.603 130.303,63.354 130.006,63.105C129.673,62.826 129.614,62.335 129.873,61.985C129.963,61.864 130.029,61.774 130.029,61.774L129.412,62.608L129.411,62.608Z" style="fill:white;stroke:rgb(114,141,190);stroke-width:0.96px;stroke-linecap:square;"/>
        <g transform="matrix(-1,0,0,1,190.951,0)">
            <path d="M100.424,95.205L103.245,88.462C106.511,80.988 110.158,73.625 112.52,69.373C112.52,69.373 122.358,58.958 125.745,55.371C126.388,54.691 127.44,54.605 128.184,55.173C130.081,56.622 133.539,59.261 135.08,60.438C135.282,60.591 135.41,60.822 135.436,61.074C135.462,61.326 135.382,61.578 135.216,61.769L131.301,66.274C131.265,66.315 131.226,66.353 131.184,66.386C130.821,66.647 130.482,66.592 130.323,66.543C130.292,66.533 130.26,66.52 130.229,66.506L126.944,65.008C126.958,65.014 130.281,66.53 130.323,66.543C130.619,66.64 130.944,66.58 131.184,66.386C131.326,66.284 131.472,66.134 131.612,65.916L135.399,65.008C136.488,64.747 137.587,65.399 137.878,66.48C137.878,66.481 137.879,66.481 137.879,66.481C138.055,67.137 137.673,67.813 137.02,67.999C133.95,68.875 125.817,71.196 124.118,71.681C123.911,71.74 123.694,71.758 123.48,71.733C122.648,71.635 120.504,71.384 120.504,71.384C120.504,71.384 116.234,79.38 116.061,88.537M127.835,62.608C127.835,62.608 127.34,63.942 127.088,64.62C126.993,64.877 126.855,65.115 126.68,65.325C125.843,66.33 123.31,69.373 123.31,69.373L126.944,65.008L127.835,62.608L129.411,62.608L128.648,62.608C128.122,62.608 127.613,62.427 127.204,62.096L127.835,62.608ZM129.411,62.608L129.412,62.608L130.6,63.603C130.6,63.603 130.303,63.354 130.006,63.105C129.673,62.826 129.614,62.335 129.873,61.985C129.963,61.864 130.029,61.774 130.029,61.774L129.412,62.608L129.411,62.608Z" style="fill:white;stroke:rgb(114,141,190);stroke-width:0.96px;stroke-linecap:square;"/>
        </g>
    </g>
    <g id="Layer1">
    </g>
</svg>
